epam-assets/icon-sources/18/internal-logo/we_are_community.svg

<svg width="18" height="18" viewBox="0 0 18 18" fill="none" xmlns="http://www.w3.org/2000/svg">
<g id="18/internal-logo/we_are_community">
<g id="icon">
<path d="M12.4427 16.2704H10.9165C8.90301 16.2704 7.26348 14.6443 7.26348 12.6446C7.26348 12.5121 7.27104 12.3821 7.28489 12.2534C6.32157 11.5997 5.68818 10.5011 5.68818 9.25747C5.68818 7.25895 7.32644 5.63164 9.33997 5.63164H12.4427C13.5219 5.63164 14.4008 6.50279 14.4008 7.57517C14.4008 8.64754 13.5232 9.51869 12.4427 9.51869H10.9165C9.40167 9.51869 8.13362 10.5861 7.83392 12.0022C8.28095 12.2446 8.79472 12.3834 9.33997 12.3834H12.4427C13.5219 12.3834 14.4008 13.2545 14.4008 14.3269C14.4008 15.3993 13.5232 16.2704 12.4427 16.2704ZM7.7697 12.5321C7.76844 12.5696 7.76718 12.6071 7.76718 12.6458C7.76718 14.3694 9.18004 15.7717 10.9165 15.7717H12.4427C13.2449 15.7717 13.8972 15.1243 13.8972 14.3281C13.8972 13.532 13.2449 12.8846 12.4427 12.8846H9.33997C8.77835 12.8846 8.24569 12.7583 7.7697 12.5321ZM9.33997 6.13408C7.60348 6.13408 6.19187 7.53642 6.19187 9.25997C6.19187 10.2524 6.65905 11.1373 7.38815 11.7097C7.80496 10.1624 9.22915 9.02 10.9178 9.02H12.444C13.2461 9.02 13.8984 8.37257 13.8984 7.57642C13.8984 6.78026 13.2461 6.13283 12.444 6.13283H9.34123L9.33997 6.13408ZM4.96537 15.6755C4.21235 15.6755 3.5991 15.0668 3.5991 14.3194C3.5991 13.572 4.21235 12.9633 4.96537 12.9633C5.7184 12.9633 6.33165 13.572 6.33165 14.3194C6.33165 15.0668 5.7184 15.6755 4.96537 15.6755ZM4.96537 13.4632C4.48938 13.4632 4.10279 13.8469 4.10279 14.3194C4.10279 14.7918 4.48938 15.1755 4.96537 15.1755C5.44136 15.1755 5.82795 14.7918 5.82795 14.3194C5.82795 13.8469 5.44136 13.4632 4.96537 13.4632ZM12.4654 4.44178C11.7124 4.44178 11.0991 3.8331 11.0991 3.08568C11.0991 2.33827 11.7124 1.72959 12.4654 1.72959C13.2184 1.72959 13.8317 2.33827 13.8317 3.08568C13.8317 3.8331 13.2184 4.44178 12.4654 4.44178ZM12.4654 2.22953C11.9894 2.22953 11.6028 2.61324 11.6028 3.08568C11.6028 3.55813 11.9894 3.94184 12.4654 3.94184C12.9414 3.94184 13.328 3.55813 13.328 3.08568C13.328 2.61324 12.9414 2.22953 12.4654 2.22953Z" fill="#6C6F80"/>
<path fill-rule="evenodd" clip-rule="evenodd" d="M9.43459 6.36367H9.33997C7.72878 6.36367 6.42146 7.66472 6.42146 9.25997C6.42146 10.0581 6.74768 10.7815 7.27695 11.3058C7.82644 9.8377 9.25114 8.79041 10.9178 8.79041H12.444C13.1209 8.79041 13.6688 8.24416 13.6688 7.57642C13.6688 6.90867 13.1209 6.36242 12.444 6.36242H9.43585L9.43459 6.36367ZM7.46076 11.4731C7.95291 10.0473 9.31645 9.02 10.9178 9.02H12.444C13.2461 9.02 13.8984 8.37257 13.8984 7.57642C13.8984 6.78026 13.2461 6.13283 12.444 6.13283H9.34123L9.33997 6.13408C7.60348 6.13408 6.19187 7.53642 6.19187 9.25997C6.19187 10.1622 6.57801 10.9755 7.19604 11.5461C7.25781 11.6031 7.3219 11.6577 7.38815 11.7097C7.40969 11.6297 7.43393 11.5508 7.46076 11.4731ZM12.4427 16.5H10.9165C8.77789 16.5 7.03389 14.7728 7.03389 12.6446C7.03389 12.55 7.0375 12.4568 7.04429 12.3647C6.0842 11.6629 5.45858 10.5323 5.45858 9.25747C5.45858 7.13064 7.20116 5.40205 9.33997 5.40205H12.4427C13.647 5.40205 14.6304 6.37428 14.6304 7.57517C14.6304 8.77596 13.6483 9.74828 12.4427 9.74828H10.9165C9.57301 9.74828 8.43943 10.6536 8.1001 11.8793C8.47617 12.055 8.89668 12.1538 9.33997 12.1538H12.4427C13.647 12.1538 14.6304 13.126 14.6304 14.3269C14.6304 15.5277 13.6483 16.5 12.4427 16.5ZM7.83392 12.0022C8.13362 10.5861 9.40167 9.51869 10.9165 9.51869H12.4427C13.5232 9.51869 14.4008 8.64754 14.4008 7.57517C14.4008 6.50279 13.5219 5.63164 12.4427 5.63164H9.33997C7.32644 5.63164 5.68818 7.25895 5.68818 9.25747C5.68818 10.5011 6.32157 11.5997 7.28489 12.2534C7.27104 12.3821 7.26348 12.5121 7.26348 12.6446C7.26348 14.6443 8.90301 16.2704 10.9165 16.2704H12.4427C13.5232 16.2704 14.4008 15.3993 14.4008 14.3269C14.4008 13.2545 13.5219 12.3834 12.4427 12.3834H9.33997C8.79472 12.3834 8.28095 12.2446 7.83392 12.0022ZM7.77026 12.7849C7.84379 14.4442 9.22698 15.7717 10.9165 15.7717H12.4427C13.2449 15.7717 13.8972 15.1243 13.8972 14.3281C13.8972 13.532 13.2449 12.8846 12.4427 12.8846H9.33997C8.86609 12.8846 8.41283 12.7947 7.99684 12.6307C7.91981 12.6003 7.84406 12.5674 7.7697 12.5321C7.76844 12.5696 7.76718 12.6071 7.76718 12.6458C7.76718 12.6924 7.76821 12.7388 7.77026 12.7849ZM8.00622 12.8798C8.12669 14.3663 9.38476 15.5421 10.9165 15.5421H12.4427C13.1197 15.5421 13.6676 14.9959 13.6676 14.3281C13.6676 13.6604 13.1197 13.1141 12.4427 13.1141H9.33997C8.87204 13.1141 8.42263 13.0316 8.00622 12.8798ZM4.96537 15.9051C4.08717 15.9051 3.36951 15.1952 3.36951 14.3194C3.36951 13.4436 4.08717 12.7337 4.96537 12.7337C5.84358 12.7337 6.56124 13.4436 6.56124 14.3194C6.56124 15.1952 5.84358 15.9051 4.96537 15.9051ZM4.96537 13.6928C4.61456 13.6928 4.33239 13.9754 4.33239 14.3194C4.33239 14.6634 4.61456 14.9459 4.96537 14.9459C5.31619 14.9459 5.59836 14.6634 5.59836 14.3194C5.59836 13.9754 5.31619 13.6928 4.96537 13.6928ZM12.4654 4.67137C11.5872 4.67137 10.8695 3.96151 10.8695 3.08568C10.8695 2.20986 11.5872 1.5 12.4654 1.5C13.3436 1.5 14.0613 2.20986 14.0613 3.08568C14.0613 3.96151 13.3436 4.67137 12.4654 4.67137ZM12.4654 2.45913C12.1146 2.45913 11.8324 2.74166 11.8324 3.08568C11.8324 3.42971 12.1146 3.71224 12.4654 3.71224C12.8162 3.71224 13.0984 3.42971 13.0984 3.08568C13.0984 2.74166 12.8162 2.45913 12.4654 2.45913ZM3.5991 14.3194C3.5991 15.0668 4.21235 15.6755 4.96537 15.6755C5.7184 15.6755 6.33165 15.0668 6.33165 14.3194C6.33165 13.572 5.7184 12.9633 4.96537 12.9633C4.21235 12.9633 3.5991 13.572 3.5991 14.3194ZM4.10279 14.3194C4.10279 13.8469 4.48938 13.4632 4.96537 13.4632C5.44136 13.4632 5.82795 13.8469 5.82795 14.3194C5.82795 14.7918 5.44136 15.1755 4.96537 15.1755C4.48938 15.1755 4.10279 14.7918 4.10279 14.3194ZM11.0991 3.08568C11.0991 3.8331 11.7124 4.44178 12.4654 4.44178C13.2184 4.44178 13.8317 3.8331 13.8317 3.08568C13.8317 2.33827 13.2184 1.72959 12.4654 1.72959C11.7124 1.72959 11.0991 2.33827 11.0991 3.08568ZM11.6028 3.08568C11.6028 2.61324 11.9894 2.22953 12.4654 2.22953C12.9414 2.22953 13.328 2.61324 13.328 3.08568C13.328 3.55813 12.9414 3.94184 12.4654 3.94184C11.9894 3.94184 11.6028 3.55813 11.6028 3.08568Z" fill="#6C6F80"/>
</g>
</g>
</svg>

<svg xmlns="http://www.w3.org/2000/svg" width="18" height="18" fill="none" viewBox="0 0 18 18">
  <path fill="#6C6F80" d="M12.443 16.27h-1.527c-2.013 0-3.653-1.626-3.653-3.625 0-.133.008-.263.022-.392a3.618 3.618 0 0 1-1.597-2.996c0-1.998 1.638-3.625 3.652-3.625h3.103c1.079 0 1.958.87 1.958 1.943a1.952 1.952 0 0 1-1.958 1.944h-1.527a3.15 3.15 0 0 0-3.082 2.483c.447.243.96.381 1.506.381h3.103c1.079 0 1.958.872 1.958 1.944a1.952 1.952 0 0 1-1.958 1.943ZM7.77 12.532a3.352 3.352 0 0 0-.003.114c0 1.723 1.413 3.126 3.15 3.126h1.526a1.45 1.45 0 0 0 1.454-1.444 1.45 1.45 0 0 0-1.454-1.443H9.34a3.65 3.65 0 0 1-1.57-.353Zm1.57-6.398c-1.737 0-3.148 1.402-3.148 3.126a3.11 3.11 0 0 0 1.196 2.45 3.654 3.654 0 0 1 3.53-2.69h1.526a1.45 1.45 0 0 0 1.454-1.444 1.45 1.45 0 0 0-1.454-1.443H9.341l-.001.001Zm-4.375 9.541A1.363 1.363 0 0 1 3.6 14.32c0-.747.613-1.356 1.366-1.356.753 0 1.367.609 1.367 1.356 0 .748-.614 1.356-1.367 1.356Zm0-2.212a.86.86 0 0 0-.862.856.86.86 0 0 0 .862.856.86.86 0 0 0 .863-.856.86.86 0 0 0-.863-.856Zm7.5-9.021A1.363 1.363 0 0 1 11.1 3.086c0-.748.613-1.356 1.366-1.356.753 0 1.367.608 1.367 1.356 0 .747-.614 1.356-1.367 1.356Zm0-2.212a.86.86 0 0 0-.862.856.86.86 0 0 0 .862.856.86.86 0 0 0 .863-.856.86.86 0 0 0-.863-.856Z"/>
  <path fill="#6C6F80" fill-rule="evenodd" d="M9.435 6.364H9.34c-1.611 0-2.919 1.3-2.919 2.896 0 .798.327 1.521.856 2.046a3.887 3.887 0 0 1 3.64-2.516h1.527a1.22 1.22 0 0 0 1.225-1.214 1.22 1.22 0 0 0-1.225-1.214H9.436l-.001.002Zm-1.974 5.11a3.657 3.657 0 0 1 3.457-2.454h1.526a1.45 1.45 0 0 0 1.454-1.444 1.45 1.45 0 0 0-1.454-1.443H9.341l-.001.001c-1.737 0-3.148 1.402-3.148 3.126a3.103 3.103 0 0 0 1.196 2.45c.022-.08.046-.16.073-.237Zm4.982 5.026h-1.527c-2.138 0-3.882-1.727-3.882-3.855 0-.095.003-.188.01-.28A3.844 3.844 0 0 1 5.46 9.257c0-2.126 1.742-3.855 3.881-3.855h3.103c1.204 0 2.187.972 2.187 2.173s-.982 2.173-2.187 2.173h-1.527A2.922 2.922 0 0 0 8.1 11.88a2.92 2.92 0 0 0 1.24.275h3.103c1.204 0 2.187.972 2.187 2.173 0 1.2-.982 2.173-2.187 2.173Zm-4.61-4.498a3.15 3.15 0 0 1 3.083-2.483h1.527c1.08 0 1.958-.871 1.958-1.944a1.953 1.953 0 0 0-1.958-1.943H9.34c-2.014 0-3.652 1.627-3.652 3.625 0 1.244.634 2.343 1.597 2.996a3.648 3.648 0 0 0-.022.392c0 2 1.64 3.625 3.653 3.625h1.527c1.08 0 1.958-.87 1.958-1.943a1.953 1.953 0 0 0-1.958-1.944H9.34a3.153 3.153 0 0 1-1.506-.38Zm-.063.783c.074 1.66 1.457 2.987 3.146 2.987h1.527a1.45 1.45 0 0 0 1.454-1.444 1.45 1.45 0 0 0-1.454-1.443H9.34a3.655 3.655 0 0 1-1.57-.353 3.352 3.352 0 0 0 0 .253Zm.236.095a2.915 2.915 0 0 0 2.91 2.662h1.527a1.22 1.22 0 0 0 1.225-1.214 1.22 1.22 0 0 0-1.225-1.214H9.34c-.468 0-.917-.082-1.334-.234Zm-3.04 3.025c-.879 0-1.596-.71-1.596-1.586 0-.875.717-1.585 1.595-1.585.879 0 1.596.71 1.596 1.585 0 .876-.717 1.586-1.596 1.586Zm0-2.212a.63.63 0 0 0-.634.626.63.63 0 0 0 .633.627.63.63 0 0 0 .633-.627.63.63 0 0 0-.633-.626Zm7.5-9.022c-.879 0-1.596-.71-1.596-1.585 0-.876.717-1.586 1.595-1.586.879 0 1.596.71 1.596 1.586 0 .876-.717 1.585-1.596 1.585Zm0-2.212a.63.63 0 0 0-.634.627.63.63 0 0 0 .633.626.63.63 0 0 0 .633-.626.63.63 0 0 0-.633-.627ZM3.598 14.32c0 .748.613 1.356 1.366 1.356.753 0 1.367-.608 1.367-1.356 0-.747-.614-1.356-1.367-1.356S3.6 13.572 3.6 14.32Zm.504 0a.86.86 0 0 1 .862-.856.86.86 0 0 1 .863.856.86.86 0 0 1-.863.856.86.86 0 0 1-.862-.856Zm6.996-11.233c0 .747.613 1.356 1.366 1.356.753 0 1.367-.609 1.367-1.356 0-.748-.614-1.356-1.367-1.356S11.1 2.338 11.1 3.086Zm.504 0a.86.86 0 0 1 .862-.856.86.86 0 0 1 .863.856.86.86 0 0 1-.863.856.86.86 0 0 1-.862-.856Z" clip-rule="evenodd"/>
</svg>
